storage/app/icons/phosphoricons/bold/code-simple-bold.svg

<svg xmlns="http://www.w3.org/2000/svg" fill="currentColor" viewBox="0 0 256 256"><path d="m96 73-61.94 55L96 183a12 12 0 1 1-16 18L8 137a12 12 0 0 1 0-18l72-64a12 12 0 0 1 16 18m152 46-72-64a12 12 0 1 0-16 18l61.91 55L160 183a12 12 0 1 0 16 18l72-64a12 12 0 0 0 0-18"/></svg>

<svg xmlns="http://www.w3.org/2000/svg" viewBox="0 0 256 256" fill="currentColor"><path d="M96,73,34.06,128,96,183A12,12,0,1,1,80,201L8,137A12,12,0,0,1,8,119L80,55A12,12,0,0,1,96,73ZM248,119,176,55A12,12,0,1,0,160,73l61.91,55L160,183A12,12,0,1,0,176,201l72-64A12,12,0,0,0,248,119Z"/></svg>
